dist/static/img/bitrix/03.svg

<svg width="48" height="48" viewBox="0 0 48 48" fill="none" xmlns="http://www.w3.org/2000/svg">
<g clip-path="url(#clip0_1071_3772)">
<path d="M46.8175 1.11403C45.9318 0.228278 44.6675 -0.164534 43.4358 0.063747L35.2365 1.58212C30.6747 2.4269 26.5812 4.89909 23.71 8.54315L17.7228 16.1423L16.6744 15.7847C13.9563 14.8574 11.0103 15.2132 8.59131 16.761L6.85385 17.8728C6.52825 18.0811 6.43319 18.5139 6.6415 18.8396C6.84981 19.1652 7.28266 19.2602 7.60835 19.052L9.34581 17.9402C11.4037 16.6235 13.91 16.3207 16.2225 17.1097L18.9499 18.0402L9.00494 27.9849L3.01235 21.9923L5.01588 20.7104C5.34147 20.5021 5.43653 20.0692 5.22822 19.7437C5.01991 19.418 4.58688 19.3228 4.26147 19.5313L2.12491 20.8984C1.44953 21.3068 1.33825 22.3269 1.91097 22.8707L8.10494 29.0647C8.60125 29.5611 9.40881 29.561 9.90513 29.0647L11.8727 27.0971L13.8843 29.1088L9.4855 35.0906C9.09831 35.6172 9.15269 36.335 9.61488 36.7972L11.2711 38.4533C11.735 38.9173 12.4536 38.9685 12.9777 38.5827L18.9596 34.184L20.9713 36.1957L19.0037 38.1632C18.5099 38.6369 18.5099 39.4897 19.0037 39.9634L21.7508 42.7104C22.0241 42.9837 22.4673 42.9837 22.7406 42.7104C23.014 42.4371 23.014 41.9939 22.7406 41.7206L20.0833 39.0633L30.0282 29.1186L30.9588 31.8459C31.7478 34.1582 31.445 36.6646 30.1282 38.7226L26.076 45.0558L24.8641 43.8439C24.5908 43.5706 24.1475 43.5706 23.8743 43.8439C23.6009 44.1171 23.6009 44.5604 23.8743 44.8337L25.1977 46.1572C25.7435 46.7306 26.7615 46.6182 27.17 45.9431L31.3074 39.4769C32.8552 37.0579 33.2111 34.1117 32.2837 31.3938L31.8603 30.1527L39.3884 24.2214C43.0325 21.3502 45.5047 17.2567 46.3494 12.695L46.4783 11.999C46.5487 11.6189 46.2977 11.2537 45.9175 11.1833C45.5373 11.113 45.1722 11.364 45.1019 11.7442L44.973 12.4402C44.1901 16.6676 41.8991 20.4611 38.522 23.1219L31.381 28.7482C31.2416 28.2501 30.8559 27.8589 30.3476 27.7442C29.8777 27.6351 29.3935 27.7735 29.0524 28.1146L21.9613 35.2057L20.1005 33.345C21.4353 32.3935 22.528 31.111 23.2457 29.6367L25.7916 24.4162C26.0908 23.8026 25.9675 23.0661 25.4849 22.5834C25.0022 22.1008 24.2657 21.9773 23.6521 22.2767L18.4315 24.8226C16.9572 25.5402 15.6748 26.633 14.7233 27.9678L12.8626 26.107L19.9537 19.0158C20.2949 18.6747 20.4333 18.1905 20.3241 17.7206C20.2018 17.1261 19.6902 16.7602 19.1273 16.6214L24.8096 9.4094C27.4704 6.03225 31.2639 3.74128 35.4914 2.95847L43.6907 1.44009C44.4806 1.29393 45.2595 1.53572 45.8276 2.10384C46.3957 2.67197 46.6376 3.45084 46.4913 4.24078L45.6647 8.70422C45.5943 9.08428 45.8454 9.44953 46.2256 9.51993C46.6052 9.59053 46.9709 9.33937 47.0413 8.95912L47.8679 4.49568C48.0959 3.264 47.7033 1.99978 46.8175 1.11403ZM15.9495 28.6632C16.7541 27.5691 17.8245 26.6761 19.0451 26.0809L24.2657 23.535C24.3425 23.4975 24.4346 23.5131 24.495 23.5733C24.5553 23.6337 24.5707 23.7259 24.5333 23.8027L21.9873 29.0231C21.392 30.2437 20.4992 31.3143 19.405 32.1187L12.2083 37.4108L10.6574 35.8599L15.9495 28.6632Z" fill="#1F5AFF"/>
<path d="M40.6346 13.4488C40.9636 13.1978 41.0964 12.7658 40.9651 12.3738C40.8438 12.0115 40.6962 11.6546 40.5265 11.3132C40.3421 10.9423 39.9422 10.7301 39.532 10.7858C38.9071 10.8698 38.2938 10.6633 37.8491 10.2187C37.4044 9.77406 37.1978 9.16075 37.2821 8.53637C37.3377 8.12566 37.1258 7.72581 36.7548 7.54141C36.4136 7.37191 36.0567 7.22425 35.6937 7.10275C35.3014 6.9715 34.8693 7.10434 34.6186 7.4335C34.2364 7.93469 33.6569 8.22212 33.0286 8.22212C32.3997 8.22212 31.8198 7.93469 31.4375 7.43359C31.1866 7.10472 30.7548 6.97178 30.3624 7.10322C30.0001 7.22462 29.6433 7.37209 29.302 7.54178C28.931 7.72619 28.7192 8.12603 28.7747 8.53656C28.859 9.16122 28.6525 9.77444 28.208 10.2189C27.7631 10.6637 27.1499 10.8704 26.5251 10.7864C26.1144 10.7309 25.7147 10.943 25.5304 11.3138C25.361 11.6548 25.2135 12.0115 25.0921 12.374C24.9607 12.7661 25.0936 13.1982 25.4227 13.4492C25.9238 13.8313 26.2113 14.4108 26.2113 15.0393C26.2113 15.668 25.9238 16.2478 25.4228 16.6299C25.0938 16.8809 24.9608 17.3129 25.0922 17.7051C25.2137 18.0677 25.3611 18.4244 25.5303 18.7649C25.7147 19.1359 26.1151 19.3485 26.525 19.2925C27.1501 19.2085 27.7632 19.4151 28.208 19.8599C28.6528 20.3046 28.8594 20.9178 28.775 21.5426C28.7196 21.9534 28.9317 22.3532 29.3025 22.5373C29.6436 22.7069 30.0003 22.8543 30.3628 22.9757C30.7548 23.1072 31.1868 22.9742 31.4378 22.6452C31.8201 22.144 32.3999 21.8566 33.0286 21.8566C33.6571 21.8566 34.2368 22.144 34.6191 22.6453C34.8705 22.9763 35.3081 23.1064 35.6942 22.9757C36.057 22.8542 36.4138 22.7067 36.7549 22.5371C37.1258 22.3528 37.3377 21.953 37.2823 21.5424C37.198 20.9177 37.4045 20.3043 37.8491 19.8599C38.2936 19.4154 38.907 19.209 39.5315 19.2933C39.942 19.349 40.3419 19.1368 40.5262 18.766C40.6959 18.4246 40.8435 18.0676 40.9649 17.705C41.0961 17.3131 40.9633 16.881 40.6343 16.63C40.1331 16.2478 39.8458 15.668 39.8458 15.0394C39.846 14.4106 40.1333 13.831 40.6346 13.4488ZM39.5388 17.5359C39.4947 17.6509 39.4476 17.7648 39.3977 17.8773C38.4505 17.8377 37.5389 18.1902 36.8594 18.8698C36.1799 19.5493 35.8272 20.4602 35.8668 21.4082C35.7544 21.4581 35.6405 21.5052 35.5255 21.5492C34.883 20.851 33.9897 20.4565 33.0288 20.4565C32.0678 20.4565 31.1744 20.851 30.5319 21.5492C30.4171 21.5052 30.3033 21.4581 30.191 21.4082C30.2307 20.4603 29.8779 19.5496 29.1982 18.8698C28.5185 18.1901 27.6076 17.8384 26.6597 17.8766C26.6098 17.7646 26.5628 17.6508 26.5188 17.536C27.217 16.8936 27.6115 16.0002 27.6115 15.0392C27.6115 14.0782 27.217 13.1849 26.5188 12.5426C26.5627 12.4277 26.6097 12.3139 26.6596 12.2018C27.6077 12.2417 28.5184 11.8884 29.1981 11.2086C29.8776 10.5291 30.2302 9.61844 30.1906 8.67034C30.3029 8.62037 30.4167 8.57331 30.5316 8.52934C31.1741 9.22741 32.0676 9.62191 33.0288 9.62191C33.9895 9.62191 34.8828 9.22741 35.5251 8.52906C35.6402 8.57312 35.7542 8.62019 35.8666 8.67016C35.827 9.61806 36.1797 10.5289 36.8594 11.2086C37.539 11.8882 38.4489 12.2412 39.3978 12.2015C39.4478 12.3138 39.4949 12.4277 39.5388 12.5427C38.8406 13.185 38.4461 14.0784 38.4461 15.0392C38.446 16.0001 38.8406 16.8935 39.5388 17.5359Z" fill="#1F5AFF"/>
<path d="M2.43055 38.3509C2.70383 38.6243 3.14708 38.6242 3.42036 38.3509L9.63608 32.1353C9.90945 31.862 9.90945 31.4187 9.63608 31.1455C9.3628 30.8721 8.91964 30.8721 8.64627 31.1455L2.43055 37.3611C2.15727 37.6344 2.15727 38.0775 2.43055 38.3509Z" fill="#1F5AFF"/>
<path d="M12.9138 40.0106C12.6405 39.7373 12.1973 39.7373 11.924 40.0106L7.58198 44.3527C7.30861 44.6259 7.30861 45.0692 7.58198 45.3425C7.85527 45.6158 8.29852 45.6158 8.5718 45.3425L12.9138 41.0004C13.1872 40.7272 13.1872 40.2839 12.9138 40.0106Z" fill="#1F5AFF"/>
<path d="M18.538 41.7207L15.9062 44.3525C15.6328 44.6258 15.6328 45.0691 15.9062 45.3423C16.1795 45.6157 16.6227 45.6156 16.896 45.3423L19.5279 42.7105C19.8012 42.4372 19.8012 41.994 19.5279 41.7207C19.2546 41.4472 18.8114 41.4473 18.538 41.7207Z" fill="#1F5AFF"/>
<path d="M8.90139 39.1669C8.62811 38.8936 8.18486 38.8936 7.91158 39.1669L0.273391 46.8051C1.56164e-05 47.0783 1.56164e-05 47.5216 0.273391 47.7949C0.546672 48.0682 0.989922 48.0682 1.2632 47.7949L8.90139 40.1568C9.17476 39.8834 9.17476 39.4402 8.90139 39.1669Z" fill="#1F5AFF"/>
<path d="M13.656 44.0024C14.0194 44.0024 14.3139 43.7078 14.3139 43.3445C14.3139 42.9811 14.0194 42.6865 13.656 42.6865C13.2926 42.6865 12.998 42.9811 12.998 43.3445C12.998 43.7078 13.2926 44.0024 13.656 44.0024Z" fill="#1F5AFF"/>
<path d="M12.7644 46.2592C13.1278 46.2592 13.4223 45.9647 13.4223 45.6013C13.4223 45.2379 13.1278 44.9434 12.7644 44.9434C12.401 44.9434 12.1064 45.2379 12.1064 45.6013C12.1064 45.9647 12.401 46.2592 12.7644 46.2592Z" fill="#1F5AFF"/>
<path d="M2.51341 34.185C2.87678 34.185 3.17134 33.8904 3.17134 33.5271C3.17134 33.1637 2.87678 32.8691 2.51341 32.8691C2.15004 32.8691 1.85547 33.1637 1.85547 33.5271C1.85547 33.8904 2.15004 34.185 2.51341 34.185Z" fill="#1F5AFF"/>
<path d="M1.8552 43.7631C2.21857 43.7631 2.51314 43.4686 2.51314 43.1052C2.51314 42.7418 2.21857 42.4473 1.8552 42.4473C1.49183 42.4473 1.19727 42.7418 1.19727 43.1052C1.19727 43.4686 1.49183 43.7631 1.8552 43.7631Z" fill="#1F5AFF"/>
<path d="M33.0134 11.5371C31.0855 11.5371 29.5225 13.1 29.5225 15.0281C29.5225 16.956 31.0855 18.519 33.0134 18.519C34.9414 18.519 36.5044 16.956 36.5044 15.0281C36.5044 13.1001 34.9414 11.5371 33.0134 11.5371ZM33.0134 17.0491C31.8972 17.0491 30.9924 16.1443 30.9924 15.0281C30.9924 13.9119 31.8972 13.007 33.0134 13.007C34.1296 13.007 35.0345 13.9119 35.0345 15.0281C35.0345 16.1443 34.1296 17.0491 33.0134 17.0491Z" fill="#1F5AFF"/>
</g>
<defs>
<clipPath id="clip0_1071_3772">
<rect width="48" height="48" fill="white"/>
</clipPath>
</defs>
</svg>

<svg width="48" height="48" viewBox="0 0 48 48" fill="none" xmlns="http://www.w3.org/2000/svg"><g clip-path="url(#clip0_1071_3772)" fill="#1F5AFF"><path d="M46.818 1.114a3.802 3.802 0 00-3.382-1.05l-8.2 1.518A19.095 19.095 0 0023.71 8.543l-5.987 7.6-1.049-.358a9.33 9.33 0 00-8.083.976l-1.737 1.112a.7.7 0 00.754 1.179l1.738-1.112a7.938 7.938 0 016.877-.83l2.727.93-9.945 9.945-5.993-5.993 2.004-1.282a.7.7 0 00-.755-1.179l-2.136 1.367c-.675.409-.787 1.429-.214 1.973l6.194 6.194a1.274 1.274 0 001.8 0l1.968-1.968 2.011 2.012-4.399 5.982a1.306 1.306 0 00.13 1.706l1.656 1.656a1.306 1.306 0 001.707.13l5.982-4.399 2.011 2.012-1.967 1.967c-.494.474-.494 1.327 0 1.8l2.747 2.747a.7.7 0 00.99-.99l-2.658-2.657 9.945-9.944.93 2.727a7.938 7.938 0 01-.83 6.877l-4.052 6.333-1.212-1.212a.7.7 0 00-.99.99l1.324 1.323c.546.574 1.564.461 1.972-.214l4.137-6.466a9.33 9.33 0 00.977-8.083l-.424-1.241 7.528-5.932a19.094 19.094 0 006.961-11.526l.13-.696a.7.7 0 10-1.377-.255l-.129.696a17.695 17.695 0 01-6.451 10.682l-7.141 5.626a1.4 1.4 0 00-1.033-1.004 1.38 1.38 0 00-1.296.37l-7.09 7.092-1.861-1.861a9.896 9.896 0 003.145-3.708l2.546-5.22a1.6 1.6 0 00-2.14-2.14l-5.22 2.546a9.895 9.895 0 00-3.709 3.145l-1.86-1.861 7.09-7.091a1.38 1.38 0 00.371-1.295c-.122-.595-.634-.96-1.197-1.1L24.81 9.41a17.695 17.695 0 0110.68-6.45l8.2-1.519a2.372 2.372 0 012.137.664 2.37 2.37 0 01.663 2.137l-.826 4.463a.7.7 0 001.376.255l.827-4.463a3.802 3.802 0 00-1.05-3.382zM15.95 28.664a8.461 8.461 0 013.095-2.583l5.22-2.546a.2.2 0 01.268.268l-2.546 5.22a8.46 8.46 0 01-2.582 3.096l-7.197 5.292-1.55-1.551 5.292-7.197z"/><path d="M40.635 13.449a.966.966 0 00.33-1.075 8.34 8.34 0 00-.439-1.06.966.966 0 00-.994-.528 1.987 1.987 0 01-1.683-.567 1.985 1.985 0 01-.567-1.683.966.966 0 00-.527-.995 8.35 8.35 0 00-1.061-.438.966.966 0 00-1.075.33 1.985 1.985 0 01-1.59.79 1.987 1.987 0 01-1.592-.79.966.966 0 00-1.075-.33c-.362.122-.719.27-1.06.439a.966.966 0 00-.527.995 1.985 1.985 0 01-.567 1.682 1.987 1.987 0 01-1.683.567.966.966 0 00-.995.528 8.26 8.26 0 00-.438 1.06.966.966 0 00.33 1.075c.502.382.79.962.79 1.59 0 .629-.288 1.209-.79 1.59a.966.966 0 00-.33 1.076c.122.363.27.72.438 1.06a.966.966 0 00.995.527 1.987 1.987 0 011.683.568c.445.445.651 1.058.567 1.683-.055.41.157.81.527.994.342.17.698.317 1.06.439a.966.966 0 001.076-.33 1.986 1.986 0 011.59-.79c.63 0 1.209.288 1.591.79a.967.967 0 001.075.33c.363-.122.72-.27 1.06-.439a.966.966 0 00.528-.995 1.985 1.985 0 01.567-1.682 1.985 1.985 0 011.683-.567c.41.056.81-.156.994-.527.17-.341.317-.698.439-1.061a.966.966 0 00-.33-1.075 1.986 1.986 0 01-.79-1.59c.001-.63.288-1.209.79-1.591zm-1.096 4.087a7.204 7.204 0 01-.141.341 3.37 3.37 0 00-2.539.993 3.37 3.37 0 00-.992 2.538c-.113.05-.226.097-.341.141a3.37 3.37 0 00-2.497-1.093 3.37 3.37 0 00-2.497 1.093 7.081 7.081 0 01-.341-.14 3.37 3.37 0 00-.993-2.54 3.376 3.376 0 00-2.538-.992 6.945 6.945 0 01-.141-.341 3.37 3.37 0 001.093-2.497 3.37 3.37 0 00-1.093-2.496c.044-.115.09-.23.14-.341a3.369 3.369 0 002.54-.993 3.37 3.37 0 00.992-2.539c.112-.05.226-.097.34-.14a3.372 3.372 0 002.498 1.092 3.37 3.37 0 002.496-1.093c.115.044.23.091.342.141a3.37 3.37 0 00.992 2.539c.68.68 1.59 1.032 2.539.992.05.113.097.227.14.342a3.37 3.37 0 00-1.092 2.496c0 .961.395 1.854 1.093 2.497zM2.43 38.35a.7.7 0 00.99 0l6.216-6.215a.7.7 0 10-.99-.99l-6.215 6.216a.7.7 0 000 .99zm10.484 1.66a.7.7 0 00-.99 0l-4.342 4.343a.7.7 0 10.99.99L12.914 41a.7.7 0 000-.99zm5.624 1.71l-2.632 2.633a.7.7 0 10.99.99l2.632-2.633a.7.7 0 00-.99-.99zm-9.637-2.553a.7.7 0 00-.99 0L.274 46.805a.7.7 0 10.99.99l7.638-7.638a.7.7 0 000-.99zm4.755 4.835a.658.658 0 100-1.315.658.658 0 000 1.315zm-.892 2.258a.658.658 0 100-1.316.658.658 0 000 1.315zM2.513 34.185a.658.658 0 100-1.316.658.658 0 000 1.316zm-.658 9.578a.658.658 0 100-1.316.658.658 0 000 1.316z"/><path d="M33.013 11.537a3.49 3.49 0 100 6.982 3.49 3.49 0 000-6.982zm0 5.512a2.021 2.021 0 110-4.042 2.021 2.021 0 010 4.042z"/></g><defs><clipPath id="clip0_1071_3772"><path fill="#fff" d="M0 0h48v48H0z"/></clipPath></defs></svg>
